X:468
T:Royan’s Rant. RH.468
T:Highland Man Kissed His Granny,aka. RH.468
R:reel
S:Rev.R.Harrison’s MS,c1815,Cumbria
O:England
A:Temple Sowerby,Cumbria
Z:vmp.Simon Wilson. Review PJH, 2008.
M:C
L:1/8
Q:2/4=80
K:D
dfaf bgaf|dfgf ecAc|dfaf bgaf|bgaf ecAc:|!
|:dfBf dfBf|dfBf ecAc|dfBf dfBf|bgaf ecAc:|

